icons/16px/testTube.svg

<svg width="16" height="16" viewBox="0 0 16 16" fill="none" xmlns="http://www.w3.org/2000/svg">
<path fill-rule="evenodd" clip-rule="evenodd" d="M4.5 1C3.67157 1 3 1.67157 3 2.5V4C3 4.82843 3.67157 5.5 4.5 5.5L4.5 11.5C4.5 13.433 6.067 15 8 15C9.933 15 11.5 13.433 11.5 11.5V5.5C12.3284 5.5 13 4.82843 13 4V2.5C13 1.67157 12.3284 1 11.5 1H4.5ZM6 11.5V5.5H10V7H8.4C8.17909 7 8 7.17909 8 7.4V8.1C8 8.32091 8.17909 8.5 8.4 8.5H10V10H8.4C8.17909 10 8 10.1791 8 10.4V11.1C8 11.3209 8.17909 11.5 8.4 11.5H10C10 12.6046 9.10457 13.5 8 13.5C6.89543 13.5 6 12.6046 6 11.5ZM11.5 2.5H4.5V4H11.5V2.5Z" fill="black"/>
</svg>

<?xml version="1.0" encoding="UTF-8"?>
<svg id="Layer_1" data-name="Layer 1" xmlns="http://www.w3.org/2000/svg" viewBox="0 0 16 16">
  <defs>
    <style>
      .cls-1 {
        fill-rule: evenodd;
        stroke-width: 0px;
      }
    </style>
  </defs>
  <path class="cls-1" d="m4.5,1c-.8284,0-1.5.6716-1.5,1.5v1.5c0,.8284.6716,1.5,1.5,1.5v6c0,1.933,1.567,3.5,3.5,3.5s3.5-1.567,3.5-3.5v-6c.8284,0,1.5-.6716,1.5-1.5v-1.5c0-.8284-.6716-1.5-1.5-1.5h-7Zm1.5,10.5v-6h4v1.5h-1.6c-.2209,0-.4.1791-.4.4v.7c0,.2209.1791.4.4.4h1.6v1.5h-1.6c-.2209,0-.4.1791-.4.4v.7c0,.2209.1791.4.4.4h1.6c0,1.1046-.8954,2-2,2s-2-.8954-2-2ZM11.5,2.5h-7v1.5h7v-1.5Z"/>
</svg>
